X:1
T:Title
%%score { 1 | 2 }
L:1/8
M:6/8
K:G
V:1 treble nm="Grand Piano"
V:2 treble 
V:1
 z3 z2[Q:1/4=92] B | d2 B G2 D | [DF]2 [CE] [Ec]2 [CE] | [B,D]2 [B,G] B2 [Dd] |[M:5/8] A-A- A3 | %5
[M:1/8] B |[M:3/4] d2 B [G,DG]2 [G,D] |[M:7/8] [G,DF]2 [G,CE] [Ec]3 [Ge] | %8
[M:3/4] [DGd] [B,G]2 [DGB]2 [CFA] | [B,G]6 | [DGB]2 [DAc] [DBd]3 | A2 B c3 | B2 c d2 [Ge] | %13
[M:5/8] d2 [E^c] [Fd]2 |[M:1/8] B/c/ |[M:3/4] d2 B G2 D | [DF]2 [CE] [Ec]2 [Ge] | %17
 [Gd]2 [B,G][DGB] [CFA]2 |[M:5/8] [B,G]-[B,G]- [B,G]3 |] %19
V:2
 z3 z2 [G,D] | [G,B,G]2 [G,D] [G,B,D]2 [G,B,] | [C,G,]2 [C,G,] [C,G,]2 [C,G,] | %3
 [G,,G,]2 [G,,G,] [G,D]2 [B,,G,] |[M:5/8] [D,F,D]-[D,F,D]- [D,F,D]3 |[M:1/8][K:treble] [G,D] | %6
[M:3/4] [G,B,G]2[K:bass] [G,D] B,,2 B,, |[M:7/8] C,2 C, [C,G,]3 [C,C] |[M:3/4] B,, E,2 D,2 D, | %9
 G,,6 | G,2 G, G,3 | [CDF]2 [B,DG] [A,DF]3 | [G,DG]2 [G,A,G] [G,B,G]2[K:bass] [E,B,] | %13
[M:5/8] [A,F]2 [A,,A,] [D,A,]2 |[M:1/8] [G,D]/[K:treble][G,A,D]/ | %15
[M:3/4] [G,B,G]2[K:bass] [G,D] [G,B,D]2 [B,,G,] | [C,G,]2 [C,G,] [C,G,]2 [C,G,] | %17
 [B,,G,]2 E,D, D,2 |[M:5/8] G,,-G,,- G,,3 |] %19

